modules/hawcons-stroke/icons/icon-35-umbrella.svg

<?xml version="1.0" encoding="UTF-8" standalone="no"?>
<svg width="32px" height="32px" viewBox="0 0 32 32" version="1.1" xmlns="http://www.w3.org/2000/svg" xmlns:xlink="http://www.w3.org/1999/xlink" xmlns:sketch="http://www.bohemiancoding.com/sketch/ns">
    <!-- Generator: Sketch 3.0.3 (7891) - http://www.bohemiancoding.com/sketch -->
    <title>icon 35 umbrella</title>
    <desc>Created with Sketch.</desc>
    <defs></defs>
    <g id="Page-1" stroke="none" stroke-width="1" fill="none" fill-rule="evenodd" sketch:type="MSPage">
        <g id="icon-35-umbrella" sketch:type="MSArtboardGroup" fill="#929292">
            <path d="M29.5,12 C30.8807119,12 32,12.8954304 32,14 C32,8.58508704 25.3290087,4.17539629 17,4.00510442 L17,2.49938448 C17,2.22358205 16.7680664,2 16.5,2 C16.2238576,2 16,2.21612644 16,2.49938448 L16,4.00510442 C7.67099129,4.17539629 1,8.58508704 1,14 C1,12.8954304 2.11928806,12 3.5,12 C4.88071194,12 6,12.8954304 6,14 C6,12.8954304 7.11928806,12 8.5,12 C9.88071194,12 11,12.8954304 11,14 C11,12.8954304 12.1192881,12 13.5,12 C14.8807119,12 16,12.8954304 16,14 L16,25.120389 L16,28.009222 C16,28.5490248 15.5522847,29 15,29 C14.4438648,29 14,28.5564136 14,28.009222 L14,27.1226578 L14,26.5046844 C14,26.2259549 13.7680664,26 13.5,26 C13.2238576,26 13,26.214035 13,26.5046844 L13,27.2476578 L13,27.9989566 C13,29.1041023 13.8877296,30 15,30 C16.1045695,30 17,29.1122704 17,28 L17,26.5 L17,14 C17,12.8954304 18.1192881,12 19.5,12 C20.8807119,12 22,12.8954304 22,14 C22,12.8954304 23.1192881,12 24.5,12 C25.8807119,12 27,12.8954304 27,14 C27,12.8954304 28.1192881,12 29.5,12 L29.5,12 Z M16,11.9004359 C15.3647415,11.3447716 14.4793441,11 13.5,11 C12.6060125,11 11.7903092,11.2872922 11.1716985,11.7600406 L11.1716985,11.7600406 C11.7401413,8.12859007 13.658494,5.38196963 16,5.03668973 L16,11.9004359 L16,11.9004359 L16,11.9004359 Z M17,11.9004359 C17.6352585,11.3447716 18.5206559,11 19.5,11 C20.3939875,11 21.2096908,11.2872922 21.8283015,11.7600406 C21.2598587,8.12859007 19.341506,5.38196963 17,5.03668973 L17,11.9004359 L17,11.9004359 L17,11.9004359 Z M10.2238777,11.3885227 C9.71502102,11.1412043 9.12674887,11 8.5,11 C7.69927835,11 6.96135881,11.2304751 6.37160992,11.6182523 L6.37160992,11.6182523 C7.28914661,8.74501913 9.82628721,6.44545221 13.0895737,5.48537262 C11.7010191,6.80454987 10.6593881,8.90518806 10.2238777,11.3885227 L10.2238777,11.3885227 L10.2238777,11.3885227 Z M22.7761223,11.3885227 C23.284979,11.1412043 23.8732511,11 24.5,11 C25.3007217,11 26.0386412,11.2304751 26.6283901,11.6182523 C25.7108534,8.74501913 23.1737128,6.44545221 19.9104263,5.48537262 C21.2989809,6.80454987 22.3406119,8.90518806 22.7761223,11.3885227 L22.7761223,11.3885227 L22.7761223,11.3885227 Z M5.37270728,11.4651024 C4.83118021,11.1705622 4.18882834,11 3.5,11 C3.25686291,11 3.01951629,11.0212502 2.79035018,11.061702 C3.94876878,8.97902532 6.30431458,7.24273365 9.34643924,6.16971909 C7.42930766,7.49583043 6.0102536,9.3431119 5.37270728,11.4651024 L5.37270728,11.4651024 L5.37270728,11.4651024 Z M23.6535608,6.16971909 C26.6956854,7.24273365 29.0512312,8.97902532 30.2096498,11.061702 C29.9804837,11.0212502 29.7431371,11 29.5,11 C28.8111717,11 28.1688198,11.1705622 27.6272927,11.4651024 C26.9897464,9.3431119 25.5706923,7.49583043 23.6535608,6.16971909 L23.6535608,6.16971909 L23.6535608,6.16971909 Z" id="umbrella" sketch:type="MSShapeGroup"></path>
        </g>
    </g>
</svg>

<svg width="32" height="32" viewBox="0 0 32 32" xmlns="http://www.w3.org/2000/svg"><path d="M29.5 12c1.38 0 2.5.895 2.5 2 0-5.415-6.671-9.825-15-9.995V2.5c0-.275-.232-.499-.5-.499-.276 0-.5.216-.5.5v1.505C7.671 4.175 1 8.585 1 14c0-1.105 1.12-2 2.5-2s2.5.895 2.5 2c0-1.105 1.12-2 2.5-2s2.5.895 2.5 2c0-1.105 1.12-2 2.5-2s2.5.895 2.5 2v14.01a1 1 0 0 1-1 .99c-.556 0-1-.444-1-.99v-1.505a.508.508 0 0 0-.5-.505c-.276 0-.5.214-.5.505v1.494c0 1.105.888 2.001 2 2.001 1.105 0 2-.888 2-2V14c0-1.105 1.12-2 2.5-2s2.5.895 2.5 2c0-1.105 1.12-2 2.5-2s2.5.895 2.5 2c0-1.105 1.12-2 2.5-2zM16 11.9c-.635-.555-1.52-.9-2.5-.9-.894 0-1.71.287-2.328.76.568-3.631 2.486-6.378 4.828-6.723V11.9zm1 0c.635-.555 1.52-.9 2.5-.9.894 0 1.71.287 2.328.76C21.26 8.129 19.342 5.382 17 5.037V11.9zm-6.776-.511A3.943 3.943 0 0 0 8.5 11c-.8 0-1.539.23-2.128.618.917-2.873 3.454-5.173 6.718-6.133-1.389 1.32-2.43 3.42-2.866 5.904zm12.552 0A3.943 3.943 0 0 1 24.5 11c.8 0 1.539.23 2.128.618-.917-2.873-3.454-5.173-6.718-6.133 1.389 1.32 2.43 3.42 2.866 5.904zm-17.403.076A3.92 3.92 0 0 0 3.5 11c-.243 0-.48.021-.71.062C3.95 8.979 6.304 7.242 9.346 6.17 7.43 7.496 6.01 9.343 5.373 11.465zm18.28-5.295c3.043 1.073 5.398 2.809 6.557 4.892A4.082 4.082 0 0 0 29.5 11a3.92 3.92 0 0 0-1.873.465c-.637-2.122-2.056-3.97-3.973-5.295z" fill="#929292" fill-rule="evenodd"/></svg>
